X:1
T:Title
%%score { ( 1 3 ) | ( 2 4 ) }
L:1/8
M:6/8
K:G
V:1 treble nm="Grand Piano"
V:3 treble 
V:2 bass 
V:4 bass 
V:1
 z3 z2[Q:1/4=81] [B,D] | [DB][DB][DB] [^C_B][CB][CB] | .B3 z3 | [FA][FA][FA] [FA][Fd][Fc] | %4
 B3- B z D | [DB][DB][DB] [^C_B][CB][CB] |[M:5/8] [DB][G,DG][G,CE] [G,B,D]2 |[M:1/8] [G,D] | %8
[M:3/4] [G,CE][CEA] [B,EG][A,DF] [DFB][CFA] |[M:5/8] [B,G]-[B,G]- [B,G]3 |[M:1/8] [DB] | %11
[M:3/4] d4 z2 | c4 z2 | B4 z2 | A4 z2 | GG G[CGA] [CGA][CGA] | %16
[M:7/8] [DGB][DGB][=FGB] [EGe]3 [EAc] |[M:3/4] [DGB][Ge] [Gd][EFc] [DFB][CFA] | %18
[M:5/8] [B,DG]-[B,DG]- [B,DG]3 |] %19
V:2
 z3 z2 [G,,G,] | [G,,G,][G,,G,][G,,G,] [G,,G,][G,,G,][G,,G,] | .G,3 z3 | %3
 [D,D][D,D][D,D] [D,D][D,A,][D,D] | [G,DG]3- [G,DG] z[K:bass] [G,B,] | %5
 [G,,G,][G,,G,][G,,G,] [G,,G,][G,,G,][G,,G,] |[M:5/8] [G,,G,]B,,C, G,,2 |[M:1/8] B,, | %8
[M:3/4] C,C, C,D, D,D, |[M:5/8] G,-G,- G,3 |[M:1/8] G, | %11
[M:3/4] [D,A,][D,A,] [D,A,][D,A,] [D,F,D][D,F,D] | [G,,G,][G,,G,] [G,,G,] [G,,G,]2 [G,,G,] | %13
 [B,,F,][B,,F,] [B,,F,][B,,F,] [B,,B,][B,,B,] | [E,B,][E,B,] [E,B,] [E,B,E]2 [E,B,E] | %15
 [E,B,][E,B,] [E,B,]^D, D,D, |[M:7/8] D,G,G, C,3 C, |[M:3/4] D,[D,B,] [D,B,]D, D,D, | %18
[M:5/8] G,,-G,,- G,,3 |] %19
V:3
 x6 | x6 | D-[DG]E [B,E]2 [DG] | x6 | x6 | x6 |[M:5/8] x5 |[M:1/8] x |[M:3/4] x6 |[M:5/8] x5 | %10
[M:1/8] x |[M:3/4] FF FF Ac | DD D [DB]2 [DB] | ^DD DD [DF][DB] | FF F G2 G | x6 |[M:7/8] x7 | %17
[M:3/4] x6 |[M:5/8] x5 |] %19
V:4
 x6 | x6 | G,,B,,[C,G,C] [G,,G,]2 [G,B,] | x6 | x5[K:bass] x | x6 |[M:5/8] x5 |[M:1/8] x | %8
[M:3/4] x6 |[M:5/8] x5 |[M:1/8] x |[M:3/4] x6 | x6 | x6 | x6 | x6 |[M:7/8] x7 |[M:3/4] x6 | %18
[M:5/8] x5 |] %19

